X: 52
T: 48. THE RED BRICK HOUSE IN GEORGIA TOWN
B: Sam Bayard, "Hill Country Tunes" 1944 #48
S: Played by Mrs Sarah Armstrong, (near) Derry, PA, Nov 18, 1943.
Z: 2010 John Chambers <jc:trillian.mit.edu>
R: reel
M: C
L: 1/8
K: Ador
"a."e3^c A2A2 | e^cef g2d2 | B3A G2G2 | AGAB "b."cBA2 |
e3^c A2A2 | e^cef g2d2 | efgf e2d2 | B2G2 A2z2 ||
e2a2 a2^/g2 | edef g2d2 | e3e ^/g2d2 | edef ^/g2d2 |
e2a2 a2g2 | edef ^/g2d2 | efgf e2d2 | B2G2 A2z2 |]
P: Var:
"a."e2e^c  || "b."c2 |]

%%sep 2 1 500
%%sep 1 1 500

